X:7505
T:There's a Chicken in the Pot
O:england
B:Joyce, P. W.; "Old Irish Folk Music and Songs"
R:song
W:There's a chicken in the pot for you young man:
W:There's a chicken in the pot for you young man:
W:  The meat for thee,
W:  And the broth for me,
W:And the bones for the tar with his trousers on.
L:1/8
M:C
K:G
DE|G2 GA B2 dB|B2 A2 A2 BA|G2 GA B2 d2|e2 A2 A2 Bc||
d2 d2 d2 Bd|e2 f2 Hg2 ge|dBAG AcBA|G2 E2 E2||


